X:116 
T:Lynch's Hornpipe 
S:Bogue MS
F:file ID: cre.4/116lynch
B:CRE4.215 (Cornphiopa Ui Loingsigh)
Q:150
L:1/8
M:4/4
R:hornpipe
K:D
(3ABc|d2dA BAFD|CDEF GBAG|FAdc Bdgf|e2dB A2 (3ABc|
d2 dA BAFD|CDEF GBAG|FAdc Bgec|d2 c2 d2:|
cd|eA~A2 fA~A2|gAaA eA~A2|gfed edcB|AFdB AFDF|
d2 dA BAFD|CDEF GBAG|FAdc Bgec|d2 c2 d2:|

%%%

